src/resources/svgSprites/pros-icon-1.svg

<svg width="88" height="80" viewBox="0 0 88 80" fill="none" xmlns="http://www.w3.org/2000/svg">
<path d="M38 61H50V72H38V61Z" fill="#07012E"/>
<path fill-rule="evenodd" clip-rule="evenodd" d="M48 63H40V70H48V63ZM38 61V72H50V61H38Z" fill="#07012E"/>
<path fill-rule="evenodd" clip-rule="evenodd" d="M76 6H12C8.68629 6 6 8.68629 6 12V55C6 58.3137 8.68629 61 12 61H76C79.3137 61 82 58.3137 82 55V12C82 8.68629 79.3137 6 76 6ZM12 4C7.58172 4 4 7.58172 4 12V55C4 59.4183 7.58172 63 12 63H76C80.4183 63 84 59.4183 84 55V12C84 7.58172 80.4183 4 76 4H12Z" fill="#07012E"/>
<mask id="path-4-inside-1_639_6300" fill="white">
<path fill-rule="evenodd" clip-rule="evenodd" d="M64.8529 57H23.1471C23.1518 56.9914 23.1567 56.9829 23.1619 56.9744L27.491 49.9396C27.5103 49.9083 27.5132 49.8696 27.4992 49.8357C27.4851 49.8017 27.4556 49.7765 27.4199 49.768L19.3842 47.8547C19.159 47.8011 19 47.5999 19 47.3683V38.6344C19 38.4029 19.159 38.2016 19.3842 38.148L27.415 36.2359C27.4523 36.227 27.4829 36.2007 27.4976 36.1654C27.5123 36.13 27.5092 36.0897 27.4891 36.057L23.1623 29.026C23.0409 28.8288 23.0708 28.5741 23.2346 28.4104L29.4104 22.2345C29.5741 22.0708 29.8288 22.0409 30.026 22.1622L37.0563 26.4886C37.0887 26.5085 37.1287 26.5116 37.1639 26.497C37.199 26.4825 37.225 26.452 37.2338 26.4151L39.146 18.3842C39.1996 18.159 39.4008 18 39.6324 18H48.3663C48.5978 18 48.7991 18.159 48.8527 18.3842L50.7643 26.4129C50.7733 26.4505 50.7998 26.4814 50.8354 26.4962C50.8711 26.511 50.9117 26.5079 50.9447 26.4876L57.974 22.1618C58.1712 22.0405 58.4259 22.0704 58.5896 22.2341L64.7655 28.41C64.9292 28.5737 64.9591 28.8284 64.8377 29.0256L60.5121 36.0547C60.4917 36.0878 60.4886 36.1288 60.5035 36.1647C60.5184 36.2007 60.5495 36.2274 60.5874 36.2364L68.6158 38.1479C68.841 38.2016 69 38.4028 69 38.6343V47.3683C69 47.5998 68.841 47.8011 68.6158 47.8547L60.5912 49.7653C60.5494 49.7753 60.515 49.8047 60.4986 49.8444C60.4864 49.8736 60.489 49.907 60.5056 49.934L64.8382 56.9744C64.8433 56.9828 64.8483 56.9914 64.8529 57ZM51.1431 42.9978C51.1431 46.9427 47.9451 50.1406 44.0002 50.1406C40.0553 50.1406 36.8574 46.9427 36.8574 42.9978C36.8574 39.0529 40.0553 35.8549 44.0002 35.8549C47.9451 35.8549 51.1431 39.0529 51.1431 42.9978Z"/>
</mask>
<path fill-rule="evenodd" clip-rule="evenodd" d="M64.8529 57H23.1471C23.1518 56.9914 23.1567 56.9829 23.1619 56.9744L27.491 49.9396C27.5103 49.9083 27.5132 49.8696 27.4992 49.8357C27.4851 49.8017 27.4556 49.7765 27.4199 49.768L19.3842 47.8547C19.159 47.8011 19 47.5999 19 47.3683V38.6344C19 38.4029 19.159 38.2016 19.3842 38.148L27.415 36.2359C27.4523 36.227 27.4829 36.2007 27.4976 36.1654C27.5123 36.13 27.5092 36.0897 27.4891 36.057L23.1623 29.026C23.0409 28.8288 23.0708 28.5741 23.2346 28.4104L29.4104 22.2345C29.5741 22.0708 29.8288 22.0409 30.026 22.1622L37.0563 26.4886C37.0887 26.5085 37.1287 26.5116 37.1639 26.497C37.199 26.4825 37.225 26.452 37.2338 26.4151L39.146 18.3842C39.1996 18.159 39.4008 18 39.6324 18H48.3663C48.5978 18 48.7991 18.159 48.8527 18.3842L50.7643 26.4129C50.7733 26.4505 50.7998 26.4814 50.8354 26.4962C50.8711 26.511 50.9117 26.5079 50.9447 26.4876L57.974 22.1618C58.1712 22.0405 58.4259 22.0704 58.5896 22.2341L64.7655 28.41C64.9292 28.5737 64.9591 28.8284 64.8377 29.0256L60.5121 36.0547C60.4917 36.0878 60.4886 36.1288 60.5035 36.1647C60.5184 36.2007 60.5495 36.2274 60.5874 36.2364L68.6158 38.1479C68.841 38.2016 69 38.4028 69 38.6343V47.3683C69 47.5998 68.841 47.8011 68.6158 47.8547L60.5912 49.7653C60.5494 49.7753 60.515 49.8047 60.4986 49.8444C60.4864 49.8736 60.489 49.907 60.5056 49.934L64.8382 56.9744C64.8433 56.9828 64.8483 56.9914 64.8529 57ZM51.1431 42.9978C51.1431 46.9427 47.9451 50.1406 44.0002 50.1406C40.0553 50.1406 36.8574 46.9427 36.8574 42.9978C36.8574 39.0529 40.0553 35.8549 44.0002 35.8549C47.9451 35.8549 51.1431 39.0529 51.1431 42.9978Z" fill="#FAFAFA"/>
<path d="M64.8529 57V59H68.198L66.6147 56.0533L64.8529 57ZM23.1471 57L21.3854 56.0532L19.8018 59H23.1471V57ZM23.1619 56.9744L24.8651 58.0227L24.8652 58.0226L23.1619 56.9744ZM27.491 49.9396L25.7877 48.8914L25.7877 48.8914L27.491 49.9396ZM27.4992 49.8357L25.6518 50.6019L25.6518 50.6019L27.4992 49.8357ZM27.4199 49.768L27.8832 47.8224L27.8831 47.8224L27.4199 49.768ZM19.3842 47.8547L19.8474 45.9091H19.8474L19.3842 47.8547ZM19.3842 38.148L19.8474 40.0936H19.8474L19.3842 38.148ZM27.415 36.2359L27.8782 38.1815L27.8783 38.1815L27.415 36.2359ZM27.4976 36.1654L29.3452 36.9312L29.3452 36.9312L27.4976 36.1654ZM27.4891 36.057L29.1924 35.0089L29.1924 35.0088L27.4891 36.057ZM23.1623 29.026L24.8656 27.9778L24.8656 27.9778L23.1623 29.026ZM23.2346 28.4104L24.6488 29.8246L24.6488 29.8246L23.2346 28.4104ZM29.4104 22.2345L30.8246 23.6487L30.8246 23.6487L29.4104 22.2345ZM30.026 22.1622L28.9778 23.8656L28.9778 23.8656L30.026 22.1622ZM37.0563 26.4886L36.0081 28.1919L36.0081 28.1919L37.0563 26.4886ZM37.1639 26.497L36.3976 24.6497L36.3976 24.6497L37.1639 26.497ZM37.2338 26.4151L35.2882 25.9518L35.2882 25.9518L37.2338 26.4151ZM39.146 18.3842L41.0916 18.8474V18.8474L39.146 18.3842ZM48.8527 18.3842L46.9071 18.8474V18.8474L48.8527 18.3842ZM50.7643 26.4129L52.7099 25.9497L52.7099 25.9497L50.7643 26.4129ZM50.8354 26.4962L50.0694 28.3437L50.0694 28.3437L50.8354 26.4962ZM50.9447 26.4876L51.9928 28.1909L51.9928 28.1909L50.9447 26.4876ZM57.974 22.1618L56.9258 20.4585L56.9258 20.4585L57.974 22.1618ZM58.5896 22.2341L60.0038 20.8199L60.0038 20.8199L58.5896 22.2341ZM64.7655 28.41L63.3512 29.8242L63.3513 29.8242L64.7655 28.41ZM64.8377 29.0256L63.1344 27.9774L63.1344 27.9774L64.8377 29.0256ZM60.5121 36.0547L58.8088 35.0065L58.8088 35.0065L60.5121 36.0547ZM60.5035 36.1647L62.3511 35.399L62.351 35.3988L60.5035 36.1647ZM60.5874 36.2364L61.0506 34.2908L61.0506 34.2908L60.5874 36.2364ZM68.6158 38.1479L68.1526 40.0935L68.1526 40.0935L68.6158 38.1479ZM68.6158 47.8547L68.1526 45.9091L68.1526 45.9091L68.6158 47.8547ZM60.5912 49.7653L60.128 47.8197L60.128 47.8197L60.5912 49.7653ZM60.4986 49.8444L58.6516 49.077L58.6516 49.0772L60.4986 49.8444ZM60.5056 49.934L58.8022 50.9821L58.8023 50.9822L60.5056 49.934ZM64.8382 56.9744L66.5415 55.9262L64.8382 56.9744ZM64.8529 55H23.1471V59H64.8529V55ZM24.9089 57.9468C24.8951 57.9724 24.8805 57.9977 24.8651 58.0227L21.4586 55.9262C21.4328 55.968 21.4085 56.0104 21.3854 56.0532L24.9089 57.9468ZM24.8652 58.0226L29.1943 50.9878L25.7877 48.8914L21.4585 55.9262L24.8652 58.0226ZM29.1943 50.9878C29.5518 50.4069 29.6052 49.693 29.3465 49.0694L25.6518 50.6019C25.4213 50.0462 25.4687 49.4097 25.7877 48.8914L29.1943 50.9878ZM29.3465 49.0694C29.0882 48.4466 28.5463 47.9803 27.8832 47.8224L26.9566 51.7136C26.365 51.5727 25.8819 51.1568 25.6518 50.6019L29.3465 49.0694ZM27.8831 47.8224L19.8474 45.9091L18.9209 49.8004L26.9567 51.7136L27.8831 47.8224ZM19.8474 45.9091C20.5231 46.07 21 46.6737 21 47.3683H17C17 48.526 17.7948 49.5322 18.9209 49.8004L19.8474 45.9091ZM21 47.3683V38.6344H17V47.3683H21ZM21 38.6344C21 39.329 20.5231 39.9327 19.8474 40.0936L18.921 36.2024C17.7948 36.4705 17 37.4767 17 38.6344H21ZM19.8474 40.0936L27.8782 38.1815L26.9518 34.2903L18.9209 36.2024L19.8474 40.0936ZM27.8783 38.1815C28.5432 38.0232 29.0864 37.5554 29.3452 36.9312L25.6501 35.3995C25.8795 34.8461 26.3613 34.4309 26.9517 34.2903L27.8783 38.1815ZM29.3452 36.9312C29.6042 36.3063 29.5507 35.591 29.1924 35.0089L25.7858 37.1052C25.4677 36.5883 25.4204 35.9536 25.6501 35.3995L29.3452 36.9312ZM29.1924 35.0088L24.8656 27.9778L21.459 30.0741L25.7858 37.1052L29.1924 35.0088ZM24.8656 27.9778C25.2296 28.5693 25.1399 29.3334 24.6488 29.8246L21.8203 26.9961C21.0018 27.8147 20.8522 29.0882 21.459 30.0742L24.8656 27.9778ZM24.6488 29.8246L30.8246 23.6487L27.9962 20.8203L21.8203 26.9961L24.6488 29.8246ZM30.8246 23.6487C30.3335 24.1399 29.5693 24.2296 28.9778 23.8656L31.0742 20.4589C30.0883 19.8522 28.8148 20.0017 27.9962 20.8203L30.8246 23.6487ZM28.9778 23.8656L36.0081 28.1919L38.1045 24.7853L31.0742 20.4589L28.9778 23.8656ZM36.0081 28.1919C36.5902 28.5501 37.3054 28.6036 37.9301 28.3444L36.3976 24.6497C36.9521 24.4197 37.5872 24.467 38.1045 24.7853L36.0081 28.1919ZM37.9301 28.3444C38.5539 28.0857 39.0212 27.5428 39.1795 26.8783L35.2882 25.9518C35.4288 25.3613 35.844 24.8793 36.3976 24.6497L37.9301 28.3444ZM39.1795 26.8783L41.0916 18.8474L37.2003 17.9209L35.2882 25.9518L39.1795 26.8783ZM41.0916 18.8474C40.9307 19.5231 40.3269 20 39.6324 20V16C38.4747 16 37.4685 16.7948 37.2003 17.9209L41.0916 18.8474ZM39.6324 20H48.3663V16H39.6324V20ZM48.3663 20C47.6717 20 47.068 19.5231 46.9071 18.8474L50.7983 17.9209C50.5302 16.7948 49.524 16 48.3663 16V20ZM46.9071 18.8474L48.8187 26.8762L52.7099 25.9497L50.7983 17.9209L46.9071 18.8474ZM48.8187 26.8761C48.9771 27.5414 49.445 28.0848 50.0694 28.3437L51.6014 24.6487C52.1545 24.878 52.5694 25.3595 52.7099 25.9497L48.8187 26.8761ZM50.0694 28.3437C50.6946 28.6029 51.4103 28.5494 51.9928 28.1909L49.8965 24.7843C50.4132 24.4663 51.0476 24.4191 51.6014 24.6487L50.0694 28.3437ZM51.9928 28.1909L59.0222 23.8652L56.9258 20.4585L49.8965 24.7843L51.9928 28.1909ZM59.0222 23.8652C58.4307 24.2292 57.6666 24.1395 57.1754 23.6483L60.0038 20.8199C59.1852 20.0013 57.9118 19.8518 56.9258 20.4585L59.0222 23.8652ZM57.1754 23.6483L63.3512 29.8242L66.1797 26.9957L60.0038 20.8199L57.1754 23.6483ZM63.3513 29.8242C62.8601 29.333 62.7704 28.5689 63.1344 27.9774L66.541 30.0738C67.1478 29.0878 66.9983 27.8143 66.1797 26.9957L63.3513 29.8242ZM63.1344 27.9774L58.8088 35.0065L62.2154 37.1029L66.541 30.0738L63.1344 27.9774ZM58.8088 35.0065C58.4502 35.5893 58.3967 36.3053 58.6559 36.9307L62.351 35.3988C62.5804 35.9523 62.5333 36.5864 62.2155 37.1028L58.8088 35.0065ZM58.6559 36.9305C58.9149 37.5554 59.4586 38.0236 60.1242 38.182L61.0506 34.2908C61.6405 34.4312 62.1219 34.846 62.3511 35.399L58.6559 36.9305ZM60.1241 38.182L68.1526 40.0935L69.0791 36.2023L61.0506 34.2908L60.1241 38.182ZM68.1526 40.0935C67.4769 39.9327 67 39.3289 67 38.6343H71C71 37.4767 70.2052 36.4705 69.079 36.2023L68.1526 40.0935ZM67 38.6343V47.3683H71V38.6343H67ZM67 47.3683C67 46.6737 67.4769 46.07 68.1526 45.9091L69.079 49.8003C70.2052 49.5322 71 48.5259 71 47.3683H67ZM68.1526 45.9091L60.128 47.8197L61.0545 51.7109L69.0791 49.8003L68.1526 45.9091ZM60.128 47.8197C59.4587 47.979 58.9123 48.4496 58.6516 49.077L62.3455 50.6117C62.1178 51.1598 61.6402 51.5715 61.0545 51.7109L60.128 47.8197ZM58.6516 49.0772C58.3942 49.6967 58.4474 50.4055 58.8022 50.9821L62.209 48.8859C62.5305 49.4085 62.5786 50.0506 62.3456 50.6116L58.6516 49.0772ZM58.8023 50.9822L63.1348 58.0226L66.5415 55.9262L62.2089 48.8858L58.8023 50.9822ZM63.1348 58.0226C63.1196 57.9978 63.105 57.9724 63.0911 57.9467L66.6147 56.0533C66.5915 56.0103 66.5671 55.9679 66.5415 55.9262L63.1348 58.0226ZM44.0002 52.1406C49.0497 52.1406 53.1431 48.0472 53.1431 42.9978H49.1431C49.1431 45.8381 46.8405 48.1406 44.0002 48.1406V52.1406ZM34.8574 42.9978C34.8574 48.0472 38.9508 52.1406 44.0002 52.1406V48.1406C41.1599 48.1406 38.8574 45.8381 38.8574 42.9978H34.8574ZM44.0002 33.8549C38.9508 33.8549 34.8574 37.9483 34.8574 42.9978H38.8574C38.8574 40.1574 41.1599 37.8549 44.0002 37.8549V33.8549ZM53.1431 42.9978C53.1431 37.9483 49.0497 33.8549 44.0002 33.8549V37.8549C46.8405 37.8549 49.1431 40.1574 49.1431 42.9978H53.1431Z" fill="#BE054B" mask="url(#path-4-inside-1_639_6300)"/>
<path d="M31 74C31 71.7909 32.7909 70 35 70H53C55.2091 70 57 71.7909 57 74V76H31V74Z" fill="#07012E"/>
<path fill-rule="evenodd" clip-rule="evenodd" d="M53 72H35C33.8954 72 33 72.8954 33 74H55C55 72.8954 54.1046 72 53 72ZM35 70C32.7909 70 31 71.7909 31 74V76H57V74C57 71.7909 55.2091 70 53 70H35Z" fill="#07012E"/>
<path fill-rule="evenodd" clip-rule="evenodd" d="M4 56C4 55.4477 4.44772 55 5 55L83 55C83.5523 55 84 55.4477 84 56C84 56.5523 83.5523 57 83 57L5 57C4.44772 57 4 56.5523 4 56Z" fill="black"/>
</svg>

<svg xmlns="http://www.w3.org/2000/svg" fill="none" viewBox="0 0 88 80">
  <path fill="#07012E" stroke="#07012E" stroke-width="2" d="M39 62h10v9H39z"/>
  <mask id="a" width="80" height="46" x="4" y="11" maskUnits="userSpaceOnUse" style="mask-type:alpha">
    <rect width="78" height="44" x="5" y="12" fill="#FAFAFA" stroke="#07012E" stroke-width="2" rx="7"/>
  </mask>
  <g mask="url(#a)">
    <mask id="b" fill="#fff">
      <path fill-rule="evenodd" d="M39.146 18.384a.5.5 0 0 1 .486-.384h8.734a.5.5 0 0 1 .487.384l1.911 8.029a.12.12 0 0 0 .18.075l7.03-4.326a.5.5 0 0 1 .616.072l6.175 6.176a.5.5 0 0 1 .073.616l-4.326 7.029a.121.121 0 0 0 .075.182l8.029 1.91a.5.5 0 0 1 .384.487v8.734a.5.5 0 0 1-.384.487l-8.025 1.91a.134.134 0 0 0-.092.08.099.099 0 0 0 .007.089l4.332 7.04a.5.5 0 0 1-.072.616l-6.176 6.176a.5.5 0 0 1-.616.072l-7.033-4.328a.117.117 0 0 0-.175.073l-1.913 8.033a.5.5 0 0 1-.487.384h-8.734a.5.5 0 0 1-.486-.384l-1.913-8.036a.114.114 0 0 0-.172-.071l-7.035 4.33a.5.5 0 0 1-.616-.073l-6.176-6.176a.5.5 0 0 1-.072-.616l4.329-7.034a.115.115 0 0 0-.071-.172l-8.036-1.913a.5.5 0 0 1-.384-.487v-8.734a.5.5 0 0 1 .384-.486l8.031-1.912a.12.12 0 0 0 .074-.179l-4.327-7.031a.5.5 0 0 1 .073-.616l6.175-6.175a.5.5 0 0 1 .616-.073l7.03 4.327c.033.02.073.023.108.008a.118.118 0 0 0 .07-.082l1.912-8.03ZM44 50.141a7.143 7.143 0 1 0 0-14.286 7.143 7.143 0 0 0 0 14.286Z" clip-rule="evenodd"/>
    </mask>
    <path fill="#FAFAFA" fill-rule="evenodd" d="M39.146 18.384a.5.5 0 0 1 .486-.384h8.734a.5.5 0 0 1 .487.384l1.911 8.029a.12.12 0 0 0 .18.075l7.03-4.326a.5.5 0 0 1 .616.072l6.175 6.176a.5.5 0 0 1 .073.616l-4.326 7.029a.121.121 0 0 0 .075.182l8.029 1.91a.5.5 0 0 1 .384.487v8.734a.5.5 0 0 1-.384.487l-8.025 1.91a.134.134 0 0 0-.092.08.099.099 0 0 0 .007.089l4.332 7.04a.5.5 0 0 1-.072.616l-6.176 6.176a.5.5 0 0 1-.616.072l-7.033-4.328a.117.117 0 0 0-.175.073l-1.913 8.033a.5.5 0 0 1-.487.384h-8.734a.5.5 0 0 1-.486-.384l-1.913-8.036a.114.114 0 0 0-.172-.071l-7.035 4.33a.5.5 0 0 1-.616-.073l-6.176-6.176a.5.5 0 0 1-.072-.616l4.329-7.034a.115.115 0 0 0-.071-.172l-8.036-1.913a.5.5 0 0 1-.384-.487v-8.734a.5.5 0 0 1 .384-.486l8.031-1.912a.12.12 0 0 0 .074-.179l-4.327-7.031a.5.5 0 0 1 .073-.616l6.175-6.175a.5.5 0 0 1 .616-.073l7.03 4.327c.033.02.073.023.108.008a.118.118 0 0 0 .07-.082l1.912-8.03ZM44 50.141a7.143 7.143 0 1 0 0-14.286 7.143 7.143 0 0 0 0 14.286Z" clip-rule="evenodd"/>
    <path fill="#BE054B" d="m37.056 26.489-1.048 1.703 1.048-1.703Zm-7.646-4.255 1.415 1.415-1.415-1.415Zm-6.248 6.792 1.704-1.048-1.704 1.048Zm4.327 7.031-1.703 1.048 1.703-1.048Zm-.074.179.463 1.946-.463-1.946Zm-8.03 1.912-.464-1.946.463 1.946Zm0 9.707.462-1.946-.463 1.946Zm8.035 1.913.463-1.946-.463 1.946Zm-4.186 7.822-1.414 1.414 1.414-1.414Zm-.072-.616 1.703 1.049-1.703-1.049Zm6.864 6.864 1.048 1.703-1.048-1.703Zm7.035-4.33-1.048-1.703 1.048 1.704Zm.172.072 1.945-.463-1.945.463Zm1.913 8.036 1.946-.463-1.946.463Zm9.707 0-1.946-.463 1.946.463Zm1.912-8.033 1.946.463-1.946-.463Zm.176-.073 1.048-1.703-1.048 1.703Zm7.033 4.328-1.048 1.703 1.048-1.703Zm6.864-6.864-1.703 1.049 1.703-1.049Zm-4.332-7.04 1.703-1.048-1.703 1.048Zm.085-.169-.463-1.945.463 1.945Zm8.025-11.617-.463 1.945.463-1.945Zm-8.029-1.912.464-1.945-.464 1.945Zm-.075-.181 1.703 1.048-1.703-1.048Zm4.254-7.645 1.414-1.414-1.415 1.414Zm.072.616-1.704-1.049 1.704 1.049Zm-6.864-6.864-1.048-1.703 1.048 1.703Zm.616.072-1.415 1.414 1.415-1.414Zm-7.645 4.254-1.048-1.704 1.048 1.704Zm-.18-.075 1.945-.463-1.946.463Zm-11.619-8.029-1.946-.463 1.946.463ZM27.491 49.94l-1.703-1.049 1.703 1.049ZM48.366 16h-8.734v4h8.734v-4Zm4.344 9.95-1.912-8.03-3.89.927 1.91 8.03 3.892-.927Zm4.216-5.491-7.03 4.325 2.097 3.407 7.03-4.326-2.097-3.406Zm9.254 6.537-6.176-6.176-2.829 2.828 6.176 6.176 2.829-2.828Zm-3.965 10.107 4.326-7.03-3.407-2.096-4.325 7.03 3.406 2.096Zm6.864-.9-8.028-1.912-.927 3.891 8.029 1.911.926-3.89ZM71 47.367v-8.734h-4v8.734h4Zm-9.946 4.343 8.025-1.91-.926-3.892-8.025 1.91.926 3.892Zm5.487 4.215-4.332-7.04-3.407 2.096 4.333 7.04 3.407-2.096Zm-6.537 9.254 6.176-6.176-2.828-2.828-6.176 6.176 2.828 2.828Zm-10.111-3.967 7.033 4.328 2.097-3.406-7.034-4.328-2.096 3.406Zm.905 6.866 1.913-8.033-3.891-.927-1.913 8.034 3.891.926ZM39.632 70h8.734v-4h-8.734v4Zm-4.345-9.957L37.2 68.08l3.892-.926-1.914-8.036-3.89.926Zm-4.213 5.498 7.035-4.329-2.096-3.407-7.036 4.33 2.097 3.407Zm-9.254-6.537 6.176 6.176 2.828-2.828-6.176-6.176-2.828 2.828Zm3.968-10.113-4.33 7.035 3.407 2.097 4.33-7.035-3.407-2.097Zm-6.867.91 8.036 1.913.926-3.892-8.036-1.913-.926 3.891ZM17 38.633v8.734h4v-8.734h-4Zm9.952-4.344-8.031 1.912.926 3.892 8.031-1.913-.926-3.89Zm-5.493-4.216 4.327 7.031 3.406-2.096-4.326-7.031-3.407 2.096Zm6.537-9.254-6.176 6.176 2.829 2.829 6.176-6.176-2.829-2.829Zm10.109 3.965-7.03-4.326-2.097 3.407 7.03 4.326 2.096-3.407ZM37.2 17.92l-1.912 8.03 3.892.927 1.912-8.03-3.892-.927Zm11.943 25.077A5.143 5.143 0 0 1 44 48.14v4a9.143 9.143 0 0 0 9.143-9.143h-4ZM44 37.855a5.143 5.143 0 0 1 5.143 5.143h4A9.143 9.143 0 0 0 44 33.855v4Zm-5.143 5.143A5.143 5.143 0 0 1 44 37.855v-4a9.143 9.143 0 0 0-9.143 9.143h4ZM44 48.14a5.143 5.143 0 0 1-5.143-5.143h-4A9.143 9.143 0 0 0 44 52.14v-4Zm-6.07-19.797a2.119 2.119 0 0 0 1.25-1.466l-3.892-.926a1.88 1.88 0 0 1 1.11-1.302l1.532 3.694Zm-1.922-.152a2.118 2.118 0 0 0 1.922.152l-1.532-3.694a1.881 1.881 0 0 1 1.706.135l-2.096 3.407Zm-5.183-4.543a1.5 1.5 0 0 1-1.847.217l2.096-3.407a2.5 2.5 0 0 0-3.078.361l2.829 2.829Zm-5.96 4.329a1.5 1.5 0 0 1-.216 1.847l-2.829-2.829a2.5 2.5 0 0 0-.361 3.078l3.407-2.096Zm4.48 8.953a2.12 2.12 0 0 0-.153-1.922l-3.406 2.096a1.88 1.88 0 0 1-.136-1.705l3.695 1.531Zm-1.467 1.25a2.12 2.12 0 0 0 1.467-1.25L25.65 35.4a1.88 1.88 0 0 1 1.302-1.11l.926 3.892ZM21 38.635a1.5 1.5 0 0 1-1.153 1.46l-.926-3.892A2.5 2.5 0 0 0 17 38.634h4Zm-1.153 7.275A1.5 1.5 0 0 1 21 47.37h-4a2.5 2.5 0 0 0 1.92 2.431l.927-3.89Zm9.5 3.16a2.114 2.114 0 0 0-1.464-1.247l-.926 3.892a1.885 1.885 0 0 1-1.305-1.112l3.694-1.533Zm-4.699 7.107a1.5 1.5 0 0 1 .217 1.847l-3.406-2.097a2.5 2.5 0 0 0 .36 3.078l2.83-2.828Zm4.33 5.959a1.5 1.5 0 0 1 1.846.217l-2.828 2.828a2.5 2.5 0 0 0 3.078.361l-2.097-3.406Zm8.953-4.482a2.115 2.115 0 0 0-1.918.153l2.096 3.406a1.886 1.886 0 0 1-1.71.136l1.532-3.695Zm1.247 1.464a2.115 2.115 0 0 0-1.247-1.464l-1.532 3.695a1.885 1.885 0 0 1-1.112-1.305l3.891-.926ZM39.632 66a1.5 1.5 0 0 1 1.46 1.153l-3.892.926A2.5 2.5 0 0 0 39.632 70v-4Zm7.275 1.153A1.5 1.5 0 0 1 48.367 66v4a2.5 2.5 0 0 0 2.431-1.92l-3.89-.927Zm3.162-9.5a2.117 2.117 0 0 0-1.25 1.466l3.892.927a1.882 1.882 0 0 1-1.11 1.303l-1.532-3.695Zm1.92.154a2.117 2.117 0 0 0-1.92-.153l1.531 3.695a1.88 1.88 0 0 1-1.707-.136l2.096-3.407Zm5.187 4.545a1.5 1.5 0 0 1 1.847-.217l-2.097 3.406a2.5 2.5 0 0 0 3.078-.36l-2.828-2.83Zm5.959-4.33a1.5 1.5 0 0 1 .217-1.846l2.828 2.828a2.5 2.5 0 0 0 .361-3.078l-3.406 2.097Zm-4.483-8.945a2.099 2.099 0 0 0 .15 1.905l3.407-2.096c.322.522.37 1.165.137 1.725l-3.694-1.534Zm1.476-1.257a2.13 2.13 0 0 0-1.476 1.257l3.694 1.535c-.228.548-.706.96-1.291 1.099l-.927-3.891ZM67 47.368a1.5 1.5 0 0 1 1.153-1.459l.926 3.891A2.5 2.5 0 0 0 71 47.368h-4Zm1.153-7.275A1.5 1.5 0 0 1 67 38.634h4a2.5 2.5 0 0 0-1.92-2.432l-.927 3.892Zm-9.497-3.162a2.121 2.121 0 0 0 1.468 1.251l.927-3.891c.59.14 1.07.555 1.3 1.108l-3.695 1.532Zm.153-1.924a2.122 2.122 0 0 0-.153 1.924l3.695-1.532c.23.553.182 1.187-.136 1.704l-3.406-2.096Zm4.542-5.183a1.5 1.5 0 0 1-.217-1.847l3.407 2.097a2.5 2.5 0 0 0-.361-3.078l-2.829 2.828Zm-4.329-5.959a1.5 1.5 0 0 1-1.847-.217l2.829-2.828a2.5 2.5 0 0 0-3.078-.361l2.096 3.406Zm-8.953 4.479a2.12 2.12 0 0 0 1.924-.153l-2.096-3.407a1.88 1.88 0 0 1 1.704-.135l-1.532 3.695Zm-1.25-1.468a2.12 2.12 0 0 0 1.25 1.468l1.532-3.695c.553.229.968.71 1.109 1.3l-3.891.927ZM39.632 16a2.5 2.5 0 0 0-2.432 1.92l3.892.927A1.5 1.5 0 0 1 39.632 20v-4ZM29.194 50.988a2.113 2.113 0 0 0 .152-1.919l-3.694 1.533a1.885 1.885 0 0 1 .136-1.71l3.406 2.096ZM48.366 20a1.5 1.5 0 0 1-1.459-1.153l3.891-.926A2.5 2.5 0 0 0 48.366 16v4Z" mask="url(#b)"/>
  </g>
  <rect width="78" height="57" x="5" y="5" stroke="#07012E" stroke-width="2" rx="7"/>
  <path fill="#07012E" stroke="#07012E" stroke-width="2" d="M35 71h18a3 3 0 0 1 3 3v1H32v-1a3 3 0 0 1 3-3Z"/>
  <path stroke="#07012E" stroke-linecap="round" stroke-width="2" d="M5 56h78"/>
</svg>
